X:1
T:Title
%%score ( 1 2 ) { 3 | ( 4 5 ) }
L:1/8
Q:1/4=88
M:4/4
K:Eb
V:1 treble nm="Grand Piano, Soprano"
V:2 treble 
V:3 bass nm="Choir Pad, Jesus Wept"
V:4 bass 
V:5 bass 
V:1
 [EG]2 [EG][EG] [EG]3 [FA] | [GB][EG][Ac][GB] [GB][_G=A] [F_A]2 | [FA]2 [B,D][CE] [DF]2 [FA]2 | %3
w: By~James~McGranahan,~1895 * * * *|||
 [Ec][EB][E=A][EB] [EG]4 | [EG]2 [EG][EA] [EB]3 [EG] | [EG][EA][EB][E_d] [Ed]2 [Ec]2 | %6
w: |||
 [Fc]2 [Bd][=Ae] [Gd]G[_Gd][Gc] | [GB]2 =A-[DA] [D=G]4 | [DB]2 [DA][EG] [FA]2 [B,D]2 | z4 z2 A2 | %10
w: ||||
 [Ge]2 [Fd][=E_d] [_Ec][EF][EB][EA] | [EG]3 [B,F] [B,E]4- | [B,E]4 z4 |] %13
w: |||
V:2
 x8 | x8 | x8 | x8 | x8 | x8 | x8 | z2 ._G2 z4 | x8 | [B,E][EG][Ec][EB] [EB]2 cd | x8 | x8 | x8 |] %13
V:3
 B,2 B,B, B,3 E | EB,EE E2 D2 | D2[K:bass] B,B, B,2 B,2 | A,G,_G,=G, B,4 | B,2 B,E E2 B,B, | %5
 B,EEB, B,2 A,2 | =A,2 B,C B,B,A,[K:treble]D | D2 C2 B,4 | B,2[K:bass] B,B, B,2 B,2 | %9
 B,B,A,B, B,4 | B,2 B,B, A,C_DC | B,3 A, G,4- | G,4 z4 |] %13
V:4
 E,2 E,E, E,3 E, | E,E,E,E, B,,2 B,,2 | B,,2 A,G, F,2 D,2 | E,E,E,E, E,4 | E,2 E,F, G,3 E, | %5
 E,F,G,G, A,2 z2 | F,2 F,_G, =G,G,D,D, | D,2 D,2 G,4 | F,2 z F, D,2 A,2 | G,E, z G, G,2 F,2 | %10
 E,2 F,G, z A,,G,,A,, | B,,3 B,, E,4- | E,4 z4 |] %13
V:5
 x8 | x8 | x8 | x8 | x8 | x8 | x8 | x8 | z2 B,,2 z4 | x8 | x8 | x8 | x8 |] %13

